X:1
T:Djursdalapolskan (stmma)
R:Polska
N:Stmma av Jon Magnusson 
M:3/4
L:1/8
Q:1/4=120
K:C
V:1
A,A,/2D/2 FA A^c|d^c/2d/2 e/2d/2 ^c/2A/2EE|AA/2=c/2 d/2e/2d/2e/2 dd|c/2d/2c/2A/2 A3/2G/2 F/2E/2D/2C/2|
A,3/2D/2 FA df|fe/2f/2 g3/2f/2 ec|A/2d/2f/2d/2 A/2c/2e/2d/2 F/2A/2d/2A/2|A/2G/2F/2E/2 EF F2:|
A,/F/A/F/ A,/F/A/F/ A,/F/A/F/|A,/E/A/E/ A,/E/A/E/ A,/E/A/E/|A,/D/A/D/ A,/D/A/D/ A,/D/A/D/|
EE/D/ CC/B,/ A,B,|A,>D FA df|fe/f/ g>f ec|A/d/f/d/ A/c/e/d/ F/A/d/A/|
A/G/F/E/ EF F4:|
